images/mUSD.svg

<svg height="250" viewBox="0 0 250 250" width="250" xmlns="http://www.w3.org/2000/svg"><path d="m249.484375 124.097656c0 67.289063-55.558594 121.839844-124.097656 121.839844-68.535157 0-124.097657-54.550781-124.097657-121.839844 0-67.292968 55.5625-121.839844 124.097657-121.839844 68.539062 0 124.097656 54.546876 124.097656 121.839844zm0 0"/><g fill="#fff"><path d="m122.554688 144.453125c-17.65625-1.527344-30.507813-10.578125-31.15625-27.019531h23.625c.519531 5.226562 3.117187 8.410156 7.527343 9.816406v-20.140625c-13.890625-3.566406-31.285156-7.390625-31.285156-27.402344 0-15.933593 13.632813-25.363281 31.285156-26.511719v-10.324218h8.308594v10.324218c17.785156 1.402344 29.210937 10.324219 30.378906 26.511719h-23.757812c-.515625-4.71875-2.980469-7.648437-6.617188-8.921875v19.753906c13.890625 3.824219 31.671875 7.519532 31.671875 27.277344 0 13.761719-11.164062 25.875-31.671875 26.765625v10.324219h-8.308593zm0-56.589844v-17.71875c-4.804688.769531-7.789063 3.570313-7.789063 8.542969 0 4.457031 3.113281 7.136719 7.789063 9.175781zm8.304687 21.667969v18.097656c5.195313-.890625 8.441406-4.332031 8.441406-9.050781 0-4.589844-3.378906-7.136719-8.441406-9.046875zm0 0"/><path d="m51.847656 170.90625h148.453125v21.964844h-148.453125zm0 0" fill-rule="evenodd"/></g></svg>

<svg xmlns="http://www.w3.org/2000/svg" xmlns:xlink="http://www.w3.org/1999/xlink" width="250px" height="250px" viewBox="0 0 250 250" version="1.1">
<g id="surface1">
<path style=" stroke:none;fill-rule:nonzero;fill:rgb(0%,0%,0%);fill-opacity:1;" d="M 249.484375 124.097656 C 249.484375 191.386719 193.925781 245.9375 125.386719 245.9375 C 56.851562 245.9375 1.289062 191.386719 1.289062 124.097656 C 1.289062 56.804688 56.851562 2.257812 125.386719 2.257812 C 193.925781 2.257812 249.484375 56.804688 249.484375 124.097656 Z M 249.484375 124.097656 "/>
<path style=" stroke:none;fill-rule:nonzero;fill:rgb(100%,100%,100%);fill-opacity:1;" d="M 122.554688 144.453125 C 104.898438 142.925781 92.046875 133.875 91.398438 117.433594 L 115.023438 117.433594 C 115.542969 122.660156 118.140625 125.84375 122.550781 127.25 L 122.550781 107.109375 C 108.660156 103.542969 91.265625 99.71875 91.265625 79.707031 C 91.265625 63.773438 104.898438 54.34375 122.550781 53.195312 L 122.550781 42.871094 L 130.859375 42.871094 L 130.859375 53.195312 C 148.644531 54.597656 160.070312 63.519531 161.238281 79.707031 L 137.480469 79.707031 C 136.964844 74.988281 134.5 72.058594 130.863281 70.785156 L 130.863281 90.539062 C 144.753906 94.363281 162.535156 98.058594 162.535156 117.816406 C 162.535156 131.578125 151.371094 143.691406 130.863281 144.582031 L 130.863281 154.90625 L 122.554688 154.90625 Z M 122.554688 87.863281 L 122.554688 70.144531 C 117.75 70.914062 114.765625 73.714844 114.765625 78.6875 C 114.765625 83.144531 117.878906 85.824219 122.554688 87.863281 Z M 130.859375 109.53125 L 130.859375 127.628906 C 136.054688 126.738281 139.300781 123.296875 139.300781 118.578125 C 139.300781 113.988281 135.921875 111.441406 130.859375 109.53125 Z M 130.859375 109.53125 "/>
<path style=" stroke:none;fill-rule:evenodd;fill:rgb(100%,100%,100%);fill-opacity:1;" d="M 51.847656 170.90625 L 200.300781 170.90625 L 200.300781 192.871094 L 51.847656 192.871094 Z M 51.847656 170.90625 "/>
</g>
</svg>
